X:1
T:Scotland, 12.12.12.12.12.12
T:Scotland, 12.12.12.12.12.12
T:John Clarke (1770-1836)
T:Public Domain Courtesy of the Cyber Hymnal™
C:John Clarke (1770-1836)
Z:Public Domain
Z:Courtesy of the Cyber Hymnal™
%%score ( 1 2 ) ( 3 4 )
L:1/8
M:3/4
K:A
V:1 treble 
V:2 treble 
V:3 bass 
V:4 bass 
V:1
 E2 | [CE]3 [DF] [CE]2 | (E2 A2) [Ec][Ec] | [EB]3 [EA] [EB]2 | [Ec]2 !fermata![Ee]2 [Ee]2 | %5
 [Ee]2 [Ec]2 [EA]2 | ([FA]2 [DF]2) [FA][DF] | [CE]2 [CA]2 [Ec]2 | [Ec]2 [EB]2 |: ([EB][EB]) | %10
 (Bc) (ed) [Ec][EB] | [Ec]2 [Ee]2 ([Ec][Ec]) | (BA) (Bc) (dB) | [Ec]2 !fermata![Ee]2 (ee) | %14
 [Ee]2 ([Fd][Ec]) ([DB][CA]) | [FA]2 [DF]2 ([DA][DF]) | [CE]2 [CA]2 [Ec]2 | %17
 [Ec]2 !fermata![EB]2 (BB) | [Ec]2 !fermata![Ee]2 [Ec]2 | [Ec]2 !fermata![Ee]2 ([EA][EA]) | %20
 [EB]3 [EA] [EB]2 | [EA-c]2 !fermata![CA]2 :| %22
V:2
 (CD) | x6 | C4 x2 | x6 | x6 | x6 | x6 | x6 | x4 |: x2 | E2 E2 x2 | x6 | E2 E2 E2 | x4 E2 | x6 | %15
 x6 | x6 | x4 E2 | x6 | x6 | x6 | x4 :| %22
V:3
 [A,,A,]2 | [A,,A,]3 [A,,A,] [A,,A,]2 | (A,2 E,2) [A,,A,][A,,A,] | [E,G,]3 [E,F,] [E,G,]2 | %4
 A,2 !fermata![A,C]2 [A,C]2 | [A,C]2 A,2 [C,A,]2 | [D,A,]4 [D,A,][D,A,] | %7
 [A,,A,]2 [A,,E,]2 [A,,A,]2 | [E,A,]2 [E,G,]2 |: ([E,G,][E,G,]) | (G,A,) (CB,) ([E,A,][E,G,]) | %11
 A,2 [A,C]2 x2 | (G,F,) (G,A,) (B,G,) | A,2 !fermata![A,C]2 [A,C]2 | [A,C]2 A,2 [A,,A,]2 | %15
 [D,A,]2 [D,A,]2 ([D,F,][D,A,]) | [A,,A,]2 [A,,E,]2 [A,,A,]2 | [E,A,]2 !fermata![E,G,]2 [E,G,]2 | %18
 A,2 !fermata![A,C]2 [A,,A,]2 | A,2 [A,C]2 ([C,A,][C,A,]) | [E,G,]3 [E,F,] [E,G,]2 | %21
 [A,,-A,]2 !fermata![A,,A,]2 :| %22
V:4
 x2 | x6 | A,,4 x2 | x6 | A,2 x4 | x2 A,2 x2 | x6 | x6 | x4 |: x2 | E,2 E,2 x2 | A,2 (A,A,) x2 | %12
 E,2 E,2 E,2 | A,2 x4 | x2 A,2 x2 | x6 | x6 | x6 | A,2 x4 | A,2 x4 | x6 | x4 :| %22

